<?xml version="1.0" encoding="UTF-8"?>
<map version="1.10" tiledversion="1.10.2" orientation="orthogonal" renderorder="right-down" width="15" height="15" tilewidth="48" tileheight="48" infinite="0" nextlayerid="6" nextobjectid="3">
 <editorsettings>
  <export target="level2.tmj" format="json"/>
 </editorsettings>
 <tileset firstgid="1" source="TD tileset.tsx"/>
 <tileset firstgid="1" source="../../../segunda fase/caminho com preenchimento.tsx"/>
 <tileset firstgid="226" source="level2.tsx"/>
 <tileset firstgid="451" source="level3.tsx"/>
 <objectgroup id="2" name="waypoints">
  <object id="1" x="0" y="0">
   <polyline points="321.29,-9.2354 317.966,403.118 723.882,405.006"/>
  </object>
 </objectgroup>
 <objectgroup id="5" name="waypoints2">
  <object id="2" x="0" y="0">
   <polyline points="321.29,-9.2354 317.966,403.118 -26.118,404.006"/>
  </object>
 </objectgroup>
 <layer id="1" name="tilemap" width="15" height="15">
  <data encoding="csv">
451,452,453,454,455,456,457,458,459,460,461,462,463,464,465,
466,467,468,469,470,471,472,473,474,475,476,477,478,479,480,
481,482,483,484,485,486,487,488,489,490,491,492,493,494,495,
496,497,498,499,500,501,502,503,504,505,506,507,508,509,510,
511,512,513,514,515,516,517,518,519,520,521,522,523,524,525,
526,527,528,529,530,531,532,533,534,535,536,537,538,539,540,
541,542,543,544,545,546,547,548,549,550,551,552,553,554,555,
556,557,558,559,560,561,562,563,564,565,566,567,568,569,570,
571,572,573,574,575,576,577,578,579,580,581,582,583,584,585,
586,587,588,589,590,591,592,593,594,595,596,597,598,599,600,
601,602,603,604,605,606,607,608,609,610,611,612,613,614,615,
616,617,618,619,620,621,622,623,624,625,626,627,628,629,630,
631,632,633,634,635,636,637,638,639,640,641,642,643,644,645,
646,647,648,649,650,651,652,653,654,655,656,657,658,659,660,
661,662,663,664,665,666,667,668,669,670,671,672,673,674,675
</data>
 </layer>
</map>
