<?xml version="1.0" encoding="UTF-8"?>
<map version="1.10" tiledversion="1.10.2" orientation="orthogonal" renderorder="right-up" width="15" height="15" tilewidth="48" tileheight="48" infinite="0" nextlayerid="3" nextobjectid="2">
 <tileset firstgid="1" name="background" tilewidth="48" tileheight="48" tilecount="105" columns="15">
  <image source="../../Downloads/background.png" width="720" height="360"/>
 </tileset>
 <tileset firstgid="106" name="cpu (2)" tilewidth="48" tileheight="48" tilecount="16" columns="4">
  <image source="../../Downloads/cpu (2).png" width="192" height="192"/>
 </tileset>
 <tileset firstgid="122" name="memoria (2)" tilewidth="48" tileheight="48" tilecount="8" columns="4">
  <image source="../../Downloads/memoria (2).png" width="192" height="96"/>
 </tileset>
 <layer id="1" name="tilemap" width="15" height="15">
  <data encoding="csv">
1,2,3,4,5,6,7,8,9,10,11,12,13,14,15,
16,17,18,19,20,21,22,23,24,25,106,107,108,109,30,
31,32,33,34,35,36,37,38,39,40,110,111,112,113,45,
46,47,48,49,50,51,52,53,54,55,114,115,116,117,60,
1,2,3,4,5,6,7,8,9,10,118,119,120,121,15,
16,17,18,19,20,21,22,23,24,25,26,27,28,29,30,
31,32,33,34,35,36,37,38,39,40,41,42,43,44,45,
46,47,48,49,50,51,52,53,54,55,56,57,58,59,60,
1,2,3,4,5,6,7,8,9,10,11,12,13,14,15,
16,17,18,19,20,21,22,23,24,25,122,123,124,125,30,
31,32,33,34,35,36,37,38,39,40,126,127,128,129,45,
46,47,48,49,50,51,52,53,54,55,56,57,58,59,60,
61,62,63,64,65,66,67,68,69,70,71,72,73,74,75,
76,77,78,79,80,81,82,83,84,85,86,87,88,89,90,
91,92,93,94,95,96,97,98,99,100,101,102,103,104,105
</data>
 </layer>
 <objectgroup id="2" name="waypoints">
  <object id="1" x="741.333" y="510.667">
   <polyline points="0,0 -649.333,0 -641.333,-380 34.6667,-377.333"/>
  </object>
 </objectgroup>
</map>
