<?xml version="1.0" encoding="UTF-8"?>
<map version="1.8" tiledversion="1.8.0" orientation="orthogonal" renderorder="right-down" width="15" height="15" tilewidth="48" tileheight="48" infinite="0" nextlayerid="3" nextobjectid="2">
 <tileset firstgid="1" source="../../../level.tsx"/>
 <tileset firstgid="226" source="../../../pixil-frame-0 (5).tsx"/>
 <tileset firstgid="451" source="../../../pixil-frame-0 (2) (1).tsx"/>
 <layer id="1" name="level2" width="15" height="15">
  <data encoding="csv">
482,482,482,482,482,482,482,482,482,482,482,482,517,518,482,
544,545,544,545,451,452,453,454,482,482,482,482,517,518,482,
559,560,559,560,466,467,468,469,482,482,482,482,517,518,482,
482,482,482,482,481,531,517,533,482,482,482,482,517,518,482,
482,455,456,457,458,546,547,548,482,482,482,482,517,518,482,
482,470,471,472,473,561,562,563,482,482,482,482,517,518,482,
482,526,527,528,488,482,482,482,482,482,482,482,517,518,482,
482,541,542,543,451,452,453,454,482,482,482,482,517,518,482,
482,556,557,558,466,467,468,469,482,482,482,482,517,518,482,
482,482,482,482,481,531,517,533,482,482,482,482,517,518,482,
482,455,456,457,458,546,547,548,482,482,482,482,517,518,482,
482,470,471,472,473,561,562,563,482,482,515,516,517,518,482,
482,526,527,528,488,482,482,482,482,482,530,531,532,533,482,
482,541,542,543,544,544,544,544,544,544,545,546,547,548,482,
482,556,557,558,559,559,559,559,559,559,560,561,562,563,482
</data>
 </layer>
 <objectgroup id="2" name="waypoints">
  <object id="1" x="0" y="96">
   <polyline points="0,0 336,0 336,144 96,144 96,288 336,288 336,432 96,432 96,576 624,576 624,-96"/>
  </object>
 </objectgroup>
</map>
