<?xml version="1.0" encoding="UTF-8"?>
<map version="1.8" tiledversion="1.8.0" orientation="orthogonal" renderorder="right-down" width="15" height="15" tilewidth="48" tileheight="48" infinite="0" nextlayerid="4" nextobjectid="4">
 <tileset firstgid="1" source="../../../../pixil-frame-0 (2) (1).tsx"/>
 <layer id="1" name="level" width="15" height="15">
  <data encoding="csv">
94,94,94,94,94,94,94,94,94,94,94,3,4,32,32,
109,109,109,109,109,109,109,109,109,109,109,18,19,32,32,
53,46,47,31,32,32,32,32,32,31,32,33,34,32,32,
53,46,47,46,47,47,47,47,47,46,47,48,49,32,32,
32,5,6,95,95,95,95,95,95,95,96,97,98,32,32,
32,20,21,110,110,110,110,110,110,110,111,112,113,32,32,
32,35,36,37,46,47,31,32,32,32,37,38,53,32,32,
32,50,51,52,46,47,46,47,47,47,52,53,53,32,32,
32,91,92,93,94,94,94,94,94,94,94,3,4,32,32,
47,106,107,108,109,109,109,109,109,109,109,18,19,32,32,
53,46,47,31,32,32,32,32,32,31,32,33,34,32,32,
53,46,47,46,47,47,47,47,47,46,47,48,49,32,32,
5,6,95,95,95,95,95,95,95,95,96,97,98,47,47,
20,21,110,110,110,110,110,110,110,110,111,112,113,32,32,
35,36,37,53,46,47,31,32,32,32,32,32,32,47,47
</data>
 </layer>
 <objectgroup id="2" name="waypoints">
  <object id="3" x="0" y="48">
   <polyline points="0,0 576,0 576,192 96,192 96,384 576,384 576,576 48,576 48,672"/>
  </object>
 </objectgroup>
</map>
