<?xml version="1.0" encoding="UTF-8"?>
<map version="1.8" tiledversion="1.8.0" orientation="orthogonal" renderorder="right-down" width="15" height="15" tilewidth="48" tileheight="48" infinite="0" nextlayerid="4" nextobjectid="3">
 <tileset firstgid="1" source="../../../../pixil-frame-0 (2) (1).tsx"/>
 <layer id="1" name="level3" width="15" height="15">
  <data encoding="csv">
5,6,95,95,96,97,98,53,91,92,93,94,2,3,4,
20,21,110,110,111,112,113,53,106,107,108,109,17,18,19,
35,36,37,38,53,31,31,53,53,46,47,31,32,33,34,
50,51,52,53,53,46,31,53,53,46,47,46,47,48,49,
91,92,93,94,2,3,4,31,5,6,95,95,96,97,98,
106,107,108,109,17,18,19,31,20,21,110,110,111,112,113,
47,53,53,31,32,33,34,31,35,36,37,38,53,53,53,
47,53,53,46,47,48,49,31,50,51,52,53,53,53,53,
5,6,95,95,96,97,98,53,91,92,93,94,2,3,4,
20,21,110,110,111,112,113,53,106,107,108,109,17,18,19,
35,36,37,38,53,31,31,53,53,46,47,31,32,33,34,
50,51,52,53,53,46,31,53,53,46,47,46,47,48,49,
91,92,93,94,2,3,4,31,5,6,95,95,96,97,98,
106,107,108,109,17,18,19,31,20,21,110,110,111,112,113,
47,53,53,31,32,33,34,31,35,36,37,38,53,53,53
</data>
 </layer>
 <objectgroup id="2" name="waypoints">
  <object id="1" x="288" y="0">
   <polyline points="0,0 0,48 -240,48 -240,240 0,240 0,432 -240,432 -240,624 0,624 0,720"/>
  </object>
 </objectgroup>
 <objectgroup id="3" name="waypoints2">
  <object id="2" x="432" y="0">
   <polyline points="0,0 0,48 240,48 240,240 0,240 0,432 240,432 240,624 0,624 0,720"/>
  </object>
 </objectgroup>
</map>
