{
  "compressionlevel": -1,
  "height": 15,
  "infinite": false,
  "layers": [
    {
      "draworder": "topdown",
      "id": 2,
      "name": "waypoints",
      "objects": [
        {
          "height": 0,
          "id": 1,
          "name": "",
          "polyline": [
            { "x": 0, "y": 100 },
            { "x": 336, "y": 100 },
            { "x": 336, "y": 244 },
            { "x": 96, "y": 244 },
            { "x": 96, "y": 388 },
            { "x": 336, "y": 388 },
            { "x": 336, "y": 532 },
            { "x": 96, "y": 532 },
            { "x": 96, "y": 676 },
            { "x": 624, "y": 676 },
            { "x": 624, "y": 4 }
          ],
          "rotation": 0,
          "type": "",
          "visible": true,
          "width": 0,
          "x": 0,
          "y": 96
        }
      ],
      "opacity": 1,
      "type": "objectgroup",
      "visible": true,
      "x": 0,
      "y": 0
    },
    {
      "data": [
        7, 7, 7, 7, 7, 7, 7, 7, 7, 7, 7, 7, 1, 1, 7, 
        1, 1, 1, 1, 1, 1, 1, 1, 7, 7, 7, 7, 1, 1, 7, 
        1, 1, 1, 1, 1, 1, 1, 1, 7, 7, 7, 7, 1, 1, 7, 
        7, 7, 7, 7, 7, 7, 1, 1, 7, 7, 7, 7, 1, 1, 7, 
        7, 1, 1, 1, 1, 1, 1, 1, 7, 7, 7, 7, 1, 1, 7, 
        7, 1, 1, 1, 1, 1, 1, 1, 7, 7, 7, 7, 1, 1, 7, 
        7, 1, 1, 7, 7, 7, 7, 7, 7, 7, 7, 7, 1, 1, 7, 
        7, 1, 1, 1, 1, 1, 1, 1, 7, 7, 7, 7, 1, 1, 7, 
        7, 1, 1, 1, 1, 1, 1, 1, 7, 7, 7, 7, 1, 1, 7, 
        7, 7, 7, 7, 7, 7, 1, 1, 7, 7, 7, 7, 1, 1, 7, 
        7, 1, 1, 1, 1, 1, 1, 1, 7, 7, 7, 7, 1, 1, 7, 
        7, 1, 1, 1, 1, 1, 1, 1, 7, 7, 7, 7, 1, 1, 7, 
        7, 1, 1, 7, 7, 7, 7, 7, 7, 7, 7, 7, 1, 1, 7, 
        7, 1, 1, 1, 1, 1, 1, 1, 1, 1, 1, 1, 1, 1, 7, 
        7, 1, 1, 1, 1, 1, 1, 1, 1, 1, 1, 1, 1, 1, 7
      ],
      "height": 15,
      "id": 1,
      "name": "tilemap",
      "opacity": 1,
      "type": "tilelayer",
      "visible": true,
      "width": 15,
      "x": 0,
      "y": 0
    }
  ],
  "nextlayerid": 3,
  "nextobjectid": 2,
  "orientation": "orthogonal",
  "renderorder": "right-down",
  "tiledversion": "1.8.0",
  "tileheight": 48,
  "tilesets": [
    {
      "firstgid": 1,
      "source": "..\\..\\..\\..\\level.tsx"
    },
    {
      "firstgid": 226,
      "source": "..\\..\\..\\..\\pixil-frame-0 (5).tsx"
    },
    {
      "firstgid": 451,
      "source": "..\\..\\..\\..\\pixil-frame-0 (2) (1).tsx"
    }
  ],
  "tilewidth": 48,
  "type": "map",
  "version": "1.8",
  "width": 15
}
