{
  "compressionlevel": -1,
  "height": 15,
  "infinite": false,
  "layers": [
    {
      "draworder": "topdown",
      "id": 2,
      "name": "waypoints",
      "objects": [
        {
          "height": 0,
          "id": 3,
          "name": "",
          "polyline": [
            { "x": 0, "y": 50 },
            { "x": 576, "y": 50 },
            { "x": 576, "y": 242 },
            { "x": 96, "y": 242 },
            { "x": 96, "y": 434 },
            { "x": 576, "y": 434 },
            { "x": 576, "y": 626 },
            { "x": 48, "y": 626 },
            { "x": 48, "y": 722 }
          ],
          "rotation": 0,
          "type": "",
          "visible": true,
          "width": 0,
          "x": 0,
          "y": 48
        }
      ],
      "opacity": 1,
      "type": "objectgroup",
      "visible": true,
      "x": 0,
      "y": 0
    },
    {
      "data": [
        1, 1, 1, 1, 1, 1, 1, 1, 1, 1, 1, 1, 1, 7, 7,
        1, 1, 1, 1, 1, 1, 1, 1, 1, 1, 1, 1, 1, 7, 7,
        7, 7, 7, 7, 7, 7, 7, 7, 7, 7, 7, 1, 1, 7, 7,
        7, 7, 7, 7, 7, 7, 7, 7, 7, 7, 7, 1, 1, 7, 7,
        7, 1, 1, 1, 1, 1, 1, 1, 1, 1, 1, 1, 1, 7, 7,
        7, 1, 1, 1, 1, 1, 1, 1, 1, 1, 1, 1, 1, 7, 7,
        7, 1, 1, 7, 7, 7, 7, 7, 7, 7, 7, 7, 7, 7, 7,
        7, 1, 1, 7, 7, 7, 7, 7, 7, 7, 7, 7, 7, 7, 7,
        7, 1, 1, 1, 1, 1, 1, 1, 1, 1, 1, 1, 1, 7, 7,
        7, 1, 1, 1, 1, 1, 1, 1, 1, 1, 1, 1, 1, 7, 7,
        7, 7, 7, 7, 7, 7, 7, 7, 7, 7, 7, 1, 1, 7, 7,
        7, 7, 7, 7, 7, 7, 7, 7, 7, 7, 7, 1, 1, 7, 7,
        1, 1, 1, 1, 1, 1, 1, 1, 1, 1, 1, 1, 1, 7, 7,
        1, 1, 1, 1, 1, 1, 1, 1, 1, 1, 1, 1, 1, 7, 7,
        1, 1, 7, 7, 7, 7, 7, 7, 7, 7, 7, 7, 7, 7, 7
      ],
      "height": 15,
      "id": 1,
      "name": "tilemap",
      "opacity": 1,
      "type": "tilelayer",
      "visible": true,
      "width": 15,
      "x": 0,
      "y": 0
    }
  ],
  "nextlayerid": 4,
  "nextobjectid": 4,
  "orientation": "orthogonal",
  "renderorder": "right-down",
  "tiledversion": "1.10.2",
  "tileheight": 48,
  "tilesets": [
    {
      "firstgid": 1,
      "source": "../../../../pixil-frame-0 (2) (1).tsx"
    },
    {
      "firstgid": 1,
      "source": "TD tileset.tsx"
    },
    {
      "firstgid": 226,
      "source": "level2.tsx"
    },
    {
      "firstgid": 451,
      "source": "level3.tsx"
    }
  ],
  "tilewidth": 48,
  "type": "map",
  "version": "1.10",
  "width": 15
}
