{
  "compressionlevel": -1,
  "height": 15,
  "infinite": false,
  "layers": [
    {
      "data": [
        5, 6, 95, 95, 96, 97, 98, 53, 91, 92, 93, 94, 2, 3, 4,
        20, 21, 110, 110, 111, 112, 113, 53, 106, 107, 108, 109, 17, 18, 19,
        35, 36, 37, 38, 53, 31, 31, 53, 53, 46, 47, 31, 32, 33, 34,
        50, 51, 52, 53, 53, 46, 31, 53, 53, 46, 47, 46, 47, 48, 49,
        91, 92, 93, 94, 2, 3, 4, 31, 5, 6, 95, 95, 96, 97, 98,
        106, 107, 108, 109, 17, 18, 19, 31, 20, 21, 110, 110, 111, 112, 113,
        47, 53, 53, 31, 32, 33, 34, 31, 35, 36, 37, 38, 53, 53, 53,
        47, 53, 53, 46, 47, 48, 49, 31, 50, 51, 52, 53, 53, 53, 53,
        5, 6, 95, 95, 96, 97, 98, 53, 91, 92, 93, 94, 2, 3, 4,
        20, 21, 110, 110, 111, 112, 113, 53, 106, 107, 108, 109, 17, 18, 19,
        35, 36, 37, 38, 53, 31, 31, 53, 53, 46, 47, 31, 32, 33, 34,
        50, 51, 52, 53, 53, 46, 31, 53, 53, 46, 47, 46, 47, 48, 49,
        91, 92, 93, 94, 2, 3, 4, 31, 5, 6, 95, 95, 96, 97, 98,
        106, 107, 108, 109, 17, 18, 19, 31, 20, 21, 110, 110, 111, 112, 113,
        47, 53, 53, 31, 32, 33, 34, 31, 35, 36, 37, 38, 53, 53, 53
      ],
      "height": 15,
      "id": 1,
      "name": "tilemap",
      "opacity": 1,
      "type": "tilelayer",
      "visible": true,
      "width": 15,
      "x": 0,
      "y": 0
    },
    {
      "draworder": "topdown",
      "id": 2,
      "name": "waypoints",
      "objects": [
        {
          "height": 0,
          "id": 1,
          "name": "",
          "polyline": [
            { "x": 288, "y": 0 },
            { "x": 288, "y": 48 },
            { "x": 48, "y": 48 },
            { "x": 48, "y": 240 },
            { "x": 288, "y": 240 },
            { "x": 288, "y": 432 },
            { "x": 48, "y": 432 },
            { "x": 48, "y": 622 },
            { "x": 288, "y": 622 },
            { "x": 288, "y": 720 }
          ],
          "rotation": 0,
          "type": "",
          "visible": true,
          "width": 0,
          "x": 0,
          "y": 0
        }
      ],
      "opacity": 1,
      "type": "objectgroup",
      "visible": true,
      "x": 0,
      "y": 0
    },
    {
      "draworder": "topdown",
      "id": 3,
      "name": "waypoints2",
      "objects": [
        {
          "height": 0,
          "id": 2,
          "name": "",
          "polyline": [
            { "x": 432, "y": 0 },
            { "x": 432, "y": 48 },
            { "x": 672, "y": 48 },
            { "x": 672, "y": 240 },
            { "x": 432, "y": 240 },
            { "x": 432, "y": 432 },
            { "x": 672, "y": 432 },
            { "x": 672, "y": 622 },
            { "x": 432, "y": 622 },
            { "x": 432, "y": 720 }
          ],
          "rotation": 0,
          "type": "",
          "visible": true,
          "width": 0,
          "x": 0,
          "y": 0
        }
      ],
      "opacity": 1,
      "type": "objectgroup",
      "visible": true,
      "x": 0,
      "y": 0
    }
  ],
  "nextlayerid": 4,
  "nextobjectid": 3,
  "orientation": "orthogonal",
  "renderorder": "right-down",
  "tiledversion": "1.8.0",
  "tileheight": 48,
  "tilesets": [
    {
      "firstgid": 1,
      "source": "../../../pixil-frame-0 (2) (1).tsx"
    }
  ],
  "tilewidth": 48,
  "type": "map",
  "version": "1.8",
  "width": 15
}