{
  "compressionlevel": -1,
  "height": 15,
  "infinite": false,
  "layers": [
    {
      "draworder": "topdown",
      "id": 2,
      "name": "waypoints",
      "objects": [
        {
          "height": 0,
          "id": 1,
          "name": "",
          "polyline": [
            {
              "x": 96.29,
              "y": -7.2354
            },
            {
              "x": 93.678,
              "y": 144.724
            },
            {
              "x": 336.966,
              "y": 148.118
            },
            {
              "x": 335.882,
              "y": 383.006
            },
            {
              "x": 96.9785,
              "y": 385.8455
            },
            {
              "x": 96.1,
              "y": 479.978
            },
            {
              "x": 94.224,
              "y": 577.037
            },
            {
              "x": 621.834,
              "y": 575.851
            },
            {
              "x": 631.029,
              "y": -8.95299999999997
            }
          ],
          "rotation": 0,
          "type": "",
          "visible": true,
          "width": 0,
          "x": 0,
          "y": 0
        }
      ],
      "opacity": 1,
      "type": "objectgroup",
      "visible": true,
      "x": 0,
      "y": 0
    },
    {
      "data": [
        7, 1, 1, 7, 7, 7, 7, 7, 7, 7, 7, 7, 1, 1, 7,
        7, 1, 1, 7, 7, 7, 7, 7, 7, 7, 7, 7, 1, 1, 7,
        7, 1, 1, 1, 1, 1, 1, 1, 7, 7, 7, 7, 1, 1, 7,
        7, 1, 1, 1, 1, 1, 1, 1, 7, 7, 7, 7, 1, 1, 7,
        7, 7, 7, 7, 7, 7, 1, 1, 7, 7, 7, 7, 1, 1, 7,
        7, 7, 7, 7, 7, 7, 1, 1, 7, 7, 7, 7, 1, 1, 7,
        7, 7, 7, 7, 7, 7, 1, 1, 7, 7, 7, 7, 1, 1, 7,
        7, 1, 1, 1, 1, 1, 1, 1, 7, 7, 7, 7, 1, 1, 7,
        7, 1, 1, 1, 1, 1, 1, 1, 7, 7, 7, 7, 1, 1, 7,
        7, 1, 1, 7, 7, 7, 7, 7, 7, 7, 7, 7, 1, 1, 7,
        7, 1, 1, 7, 7, 7, 7, 7, 7, 7, 7, 7, 1, 1, 7,
        7, 1, 1, 1, 1, 1, 1, 1, 1, 1, 1, 1, 1, 1, 7,
        7, 1, 1, 1, 1, 1, 1, 1, 1, 1, 1, 1, 1, 1, 7,
        7, 7, 7, 7, 7, 7, 7, 7, 7, 7, 7, 7, 7, 7, 7,
        7, 7, 7, 7, 7, 7, 7, 7, 7, 7, 7, 7, 7, 7, 7
      ],
      "height": 15,
      "id": 1,
      "name": "tilemap",
      "opacity": 1,
      "type": "tilelayer",
      "visible": true,
      "width": 15,
      "x": 0,
      "y": 0
    }
  ],
  "nextlayerid": 4,
  "nextobjectid": 2,
  "orientation": "orthogonal",
  "renderorder": "right-down",
  "tiledversion": "1.10.2",
  "tileheight": 48,
  "tilesets": [
    {
      "firstgid": 1,
      "source": "TD tileset.tsx"
    },
    {
      "firstgid": 14,
      "source": "../../../../../segunda fase/caminho com preenchimento.tsx"
    }
  ],
  "tilewidth": 48,
  "type": "map",
  "version": "1.10",
  "width": 15
}
